X:1
T:Gradus ad Parnassum
T:Exercitii II
T:Johann Joseph Fux
%%score [ 1 2 3 ]
L:1/8
Q:1/2=100
M:2/2
K:C
V:1 treble nm="Piano,  "
V:2 bass nm="Piano,  "
V:3 bass nm="Piano"
V:1
"^47" D8 | F8 | E8 | D8 | G8 | F8 | A8 | G8 | F8 | E8 | D8 |][M:2/2][K:treble]"^48" F8 | A8 | c8 | %14
 B8 | B8 | d8 | c8 | e8 | d8 | ^c8 | d8 |][M:2/2][K:treble]"^49" F8 | A8 | G8 | F8 | E8 | F8 | E8 | %29
 G8 | D8 | ^C8 | D8 |][M:2/2]"^50" E8 | C8 | D8 | C8 | A,8 | A8 | G8 | E8 | F8 | E8 |] %43
[M:2/2][K:treble]"^51" G8 | E8 | F8 | A8 | c8 | c8 | e8 | c8 | A8 | ^G8 |] %53
[M:2/2][K:treble]"^52" G8 | E8 | F8 | E8 | E8 | E8 | G8 | G8 | D8 | E8 |] %63
[M:2/2][K:treble]"^53" F8 | G8 | A8 | F8 | D8 | E8 | F8 | c8 | A8 | F8 | G8 | F8 |] %75
[M:2/2][K:treble]"^54" A8 | c8 | c8 | d8 | d8 | _B8 | A8 | G8 | F8 | f8 | e8 | f8 |] %87
[M:2/2][K:treble]"^55" A8 | _B8 | c8 | A8 | _B8 | c8 | A8 | G8 | c8 | A8 | _B8 | A8 |] %99
[M:2/2][K:treble]"^56" G,8 | C8 | B,8 | G,8 | C8 | E8 | D8 | G8 | E8 | C8 | D8 | B,8 | A,8 | G,8 |] %113
[M:2/2][K:treble]"^57" B8 | G8 | G8 | B8 | G8 | A8 | B8 | B8 | c8 | E8 | ^F8 | G8 | ^F8 | G8 |] %127
[M:2/2]"^58" A8 | c8 | B8 | d8 | c8 | e8 | f8 | e8 | d8 | c8 | B8 | A8 |][M:2/2]"^59" E8 | E8 | %141
 G8 | F8 | E8 | c8 | A8 | c8 | B8 | A8 | ^G8 | A8 |][M:2/2][K:treble]"^60" C8 | E8 | D8 | F8 | E8 | %156
 C8 | C8 | C8 | D8 | A,8 | ^G,8 | A,8 |][M:2/2]"^61" C8 | E8 | F8 | G8 | E8 | A8 | G8 | E8 | F8 | %172
 E8 | D8 | C8 |][M:2/2][K:treble]"^62" E8 | G8 | A8 | B8 | c8 | c8 | e8 | c8 | A8 | c8 | B8 | c8 |] %187
[M:2/2][K:treble]"^63" D8 | F8 | E8 | D8 | G8 | F8 | A8 | G8 | F8 | E8 | D8 |] %198
[M:2/2][K:treble]"^64" z4 F4 | A4 B4 | c4 A4 | B4 G4 | B4 c4 | d4 f4 | c4 d4 | e4 c4 | A4 d4- | %207
 d4 ^c4 | d8 |][M:2/2]"^65" A8 | A8 | c8 | B8 | B8 | d8 | c8 | e8 | A8 | G8 | ^F8 |] %220
[M:2/2]"^66" z4 G4 | A4 G4 | F4 G4 | A4 B4 | c4 d4 | c4 d4 | e4 d4 | c4 B4 | A4 B4 | ^G8 |] %230
[M:2/2][K:treble]"^67" E8 | E8 | F8 | E8 | F8 | E8 | G8 | G8 | A8 | ^G8 |][M:2/2]"^68" E8 | C8 | %242
 D8 | C8 | A,8 | A8 | G8 | E8 | F8 | E8 |][M:2/2][K:treble]"^69" F8 | G8 | A8 | F8 | D8 | E8 | F8 | %257
 c8 | A8 | F8 | G8 | F8 |][M:2/2][K:treble]"^70" z4 f4 | e4 d4 | c4 _B4 | A4 c4 | _B4 A4 | G4 c4 | %268
 A4 a4 | g4 e4 | c4 A4 | d4 f4- | f4 e4 | f8 |][M:2/2][K:treble]"^71" C8 | C8 | C8 | D8 | F8 | G8 | %280
 A8 | G8 | C8 | D8 | E8 | F8 |][M:2/2][K:treble]"^72" A2 D2 F2 G2 | A2 F2 A2 B2 | c2 B2 G2 A2 | %289
 B2 c2 d2 B2 | e2 d2 B2 ^c2 | d2 f2 e2 d2 | c2 A2 c2 d2 | e2 d2 c2 B2 | A2 D2 A2 B2 | %295
 ^c2 A2 B2 c2 | d8 |][M:2/2][K:treble]"^73" D2 E2 F2 G2 | A2 A,2 C2 D2 | E2 F2 G2 E2 | %300
 F2 A2 F2 E2 | D2 _B,2 D2 E2 | F2 A2 G2 F2 | E2 C2 E2 F2 | G2 E2 F2 G2 | A2 A,2 C2 D2 | %306
 E2 D2 B,2 ^C2 | D8 |][M:2/2][K:treble]"^74" A8 | A8 | c8 | B8 | B8 | d8 | c8 | e8 | d8 | ^c8 | %318
 d8 |][M:2/2][K:treble]"^75" D8 | F8 | E8 | D8 | G8 | F8 | A8 | G8 | F8 | E8 | D8 |] %330
[M:2/2]"^76" D2 E2 F2 G2 | A2 G2 F2 A2 | G2 F2 E2 G2 | F2 A2 F2 E2 | D2 _B,2 D2 E2 | F2 A2 G2 F2 | %336
 E2 C2 E2 F2 | G2 F2 D2 E2 | F2 E2 C2 D2 | E2 D2 B,2 ^C2 | D8 |][M:2/2][K:treble]"^77" z4 A4- | %342
 A4 d4- | d4 c4- | c4 B4- | B4 e4- | e4 d4- | d4 f4- | f4 e4- | e4 d4- | d4 ^c4 | d8 |] %352
[M:2/2]"^78" F8 | A8 | G8 | F8 | _B8 | A8 | c8 | _B8 | A8 | G8 | ^F8 |][M:2/2][K:treble]"^79" D8 | %364
 F8 | E8 | D8 | G8 | F8 | A8 | G8 | F8 | E8 | D8 |][M:2/2][K:treble]"^80" z4 e4- | e4 c4- | %376
 c4 B4- | B4 A4- | A4 c4- | c4 d4- | d4 c4- | c4 A4- | A4 B4 | ^G8 |][M:2/2][K:treble]"^81" E8 | %385
 C8 | D8 | C8 | A,8 | A8 | G8 | E8 | F8 | E8 |][M:2/2][K:treble]"^82" G8 | G8 | G8 | E8 | c8 | d8 | %400
 e8 | c8 | A8 | ^G8 |][M:2/2][K:treble]"^83" z4 F4- | F4 E4- | E4 D4- | D4 F4- | F4 G4- | G4 A4- | %410
 A4 F4- | F4 E4- | E4 D4- | D4 F4- | F4 E4 | F8 |][M:2/2][K:treble]"^84" A8 | B8 | c8 | A8 | F8 | %421
 G8 | A8 | G8 | c8 | A8 | _B8 | A8 |][M:2/2]"^85" F8 | G8 | A8 | F8 | D8 | E8 | F8 | c8 | A8 | F8 | %438
 G8 | F8 |][M:2/2]"^86" z4 A4- | A2 F2 A2 B2 | c2 G2 c4- | c2 BA B4- | B2 G2 B2 ^c2 | d2 f2 e2 d2 | %446
 c2 F2 f4- | f2 ed e4- | e2 A2 d4- | d4 ^c4 | d8 |][M:2/2][K:treble]"^87" D8 | F8 | E8 | D8 | G8 | %456
 F8 | A8 | G8 | F8 | E8 | D8 |][M:2/2][K:treble]"^88" A8 | A8 | c8 | B8 | B8 | d8 | c8 | c8 | A8 | %471
 G8 | ^F8 |][M:2/2]"^89" z4 e4- | e2 d2 c2 B2 | A4 G2 F2 | E4 A4- | A2 B2 c4- | c4 f4- | %479
 f2 ed e2 d2 | c2 G2 c4- | c4 B2 A2 | ^G8 |][M:2/2][K:treble]"^90" E8 | C8 | D8 | C8 | A,8 | A8 | %489
 G8 | E8 | F8 | E8 |][M:2/2][K:treble]"^91" ^G8 | A8 | F8 | E8 | c8 | c8 | e8 | c8 | A8 | ^G8 |] %503
V:2
 F,8 | A,8 | C8 | A,8 | B,8 | D8 | C8 | E8 | D8 | ^C8 | D8 |][M:2/2][K:treble] D8 | F8 | E8 | D8 | %15
 G8 | F8 | A8 | G8 | F8 | E8 | D8 |][M:2/2][K:bass] D8 | C8 | C8 | D8 | _B,8 | A,8 | C8 | _B,8 | %30
 A,8 | G,8 | A,8 |][M:2/2][K:bass] G,8 | A,8 | F,8 | E,8 | F,8 | C8 | E8 | C8 | A,8 | ^G,8 |] %43
[M:2/2][K:treble] E8 | C8 | D8 | C8 | A,8 | A8 | G8 | E8 | F8 | E8 |][M:2/2][K:bass] B,8 | C8 | %55
 A,8 | A,8 | C8 | C8 | B,8 | B,8 | A,8 | B,8 |][M:2/2][K:treble] C8 | C8 | C8 | D8 | _B,8 | _B,8 | %69
 A,8 | A8 | F8 | D8 | E8 | F8 |][M:2/2][K:treble] F8 | G8 | A8 | F8 | D8 | E8 | F8 | c8 | A8 | F8 | %85
 G8 | F8 |][M:2/2][K:treble] F8 | D8 | C8 | C8 | F8 | G8 | C8 | E8 | E8 | F8 | E8 | F8 |] %99
[M:2/2][K:bass] B,8 | G,8 | G,8 | B,8 | E8 | C8 | B,8 | G,8 | G,8 | A,8 | ^F,8 | G,8 | ^F,8 | %112
 G,8 |][M:2/2][K:treble] G,8 | C8 | B,8 | G,8 | C8 | E8 | D8 | G8 | E8 | C8 | D8 | B,8 | A,8 | %126
 G,8 |][M:2/2][K:treble] C8 | E8 | G8 | F8 | E8 | G8 | A8 | G8 | F8 | A8 | ^G8 | A8 |][M:2/2] A,8 | %140
 C8 | B,8 | D8 | C8 | E8 | F8 | E8 | D8 | C8 | B,8 | A,8 |][M:2/2][K:bass] A,8 | A,8 | B,8 | B,8 | %155
 C8 | G,8 | A,8 | G,8 | F,8 | E,8 | D,8 | E,8 |][M:2/2] G,8 | C8 | A,8 | G,8 | C8 | C8 | E8 | C8 | %171
 B,8 | C8 | B,8 | C8 |][M:2/2][K:treble] C8 | E8 | F8 | G8 | E8 | A8 | G8 | E8 | F8 | E8 | D8 | %186
 C8 |][M:2/2][K:bass] z4 F,4 | A,4 B,4 | C4 A,4 | B,4 A,4 | G,4 B,4 | D4 B,4 | A,4 C4 | E4 C4 | %195
 A,4 D4- | D4 ^C4 | D8 |][M:2/2][K:treble] D8 | F8 | E8 | D8 | G8 | F8 | A8 | G8 | F8 | E8 | D8 |] %209
[M:2/2][K:treble] D8 | F8 | E8 | D8 | G8 | F8 | A8 | G8 | F8 | E8 | D8 |][M:2/2][K:treble] E8 | %221
 C8 | D8 | C8 | A,8 | A8 | G8 | E8 | F8 | E8 |][M:2/2][K:bass] z4 B,4 | C4 B,4 | A,4 F,4 | %233
 G,4 E,4 | A,4 B,4 | C4 A,4 | B,4 D4 | E4 D4 | C4 A,4 | B,8 |][M:2/2] E,8 | A,8 | F,8 | A,8 | F,8 | %245
 F8 | E8 | C8 | A,8 | ^G,8 |][M:2/2][K:treble] z4 F4 | E4 D4 | C4 A,4 | D4 A,4 | _B,4 A,4 | %255
 G,4 C4 | A,4 A4 | G4 E4 | C4 A,4 | D4 F4- | F4 E4 | F8 |][M:2/2][K:treble] F8 | G8 | A8 | F8 | %266
 D8 | E8 | F8 | c8 | A8 | F8 | G8 | F8 |][M:2/2][K:bass] F,8 | G,8 | A,8 | F,8 | D,8 | E,8 | F,8 | %281
 C8 | A,8 | F,8 | G,8 | F,8 |][M:2/2][K:treble] D8 | F8 | E8 | D8 | G8 | F8 | A8 | G8 | F8 | E8 | %296
 D8 |][M:2/2][K:bass] A,8 | A,8 | ^C8 | D8 | _B,8 | A,8 | C8 | _B,8 | A,8 | G,8 | ^F,8 |] %308
[M:2/2][K:treble] D8 | F8 | E8 | D8 | G8 | F8 | A8 | G8 | F8 | E8 | D8 |] %319
[M:2/2][K:bass] F,2 D,2 F,2 G,2 | A,2 F,2 A,2 B,2 | C2 E,2 G,2 A,2 | B,2 D2 B,2 A,2 | %323
 G,2 A,2 B,2 ^C2 | D2 E2 F2 D2 | C2 A,2 C2 D2 | E2 D2 C2 B,2 | A,2 D2 A,2 B,2 | ^C2 A,2 B,2 C2 | %329
 D8 |][M:2/2] A,4 D4 | C4 A,4 | B,4 ^C4 | D4 A,4 | _B,4 G,4 | A,4 B,4 | C4 A,4 | E4 B,4 | D4 A,4 | %339
 G,8 | A,8 |][M:2/2][K:treble] D8 | F8 | E8 | D8 | G8 | F8 | A8 | G8 | F8 | E8 | D8 |] %352
[M:2/2] z4 A,4- | A,4 D4- | D4 C4- | C4 _B,4- | B,4 D4- | D4 C4- | C4 F4- | F4 E4- | E4 D4- | %361
 D4 ^C4 | D8 |][M:2/2][K:bass] D,8 | D8 | G,8 | G,8 | B,8 | A,8 | F,8 | C8 | A,8 | G,8 | ^F,8 |] %374
[M:2/2][K:treble] E8 | C8 | D8 | C8 | A,8 | A8 | G8 | E8 | F8 | E8 |][M:2/2][K:bass] z4 E4- | %385
 E4 C4- | C4 B,4- | B,4 A,4- | A,4 D4- | D4 C4- | C4 B,4- | B,4 A,4- | A,4 B,4 | ^G,8 |] %394
[M:2/2][K:treble] E8 | C8 | D8 | C8 | A,8 | A8 | G8 | E8 | F8 | E8 |][M:2/2][K:bass] F,8 | G,8 | %406
 A,8 | F,8 | D,8 | E,8 | F,8 | C8 | A,8 | F,8 | G,8 | F,8 |][M:2/2][K:treble] z4 F4- | F4 E4- | %418
 E4 C4- | C4 A,4- | A,4 D4- | D4 C4- | C4 F4- | F4 E4- | E4 C4- | C4 F4- | F4 E4 | F8 |] %428
[M:2/2][K:treble] F,8 | C8 | F8 | D8 | _B,8 | G,8 | D8 | E8 | F8 | D8 | _B,8 | A,8 |][M:2/2] D8 | %441
 F8 | E8 | D8 | G8 | F8 | A8 | G8 | F8 | E8 | D8 |][M:2/2][K:bass] z4 A,4- | A,2 F,G, A,2 B,2 | %453
 C2 G,2 C4- | C4 B,4- | B,2 G,A, B,2 ^C2 | D2 A,2 D4- | D2 C2 F4- | F2 ED E4- | E2 A,2 D4- | %460
 D4 ^C4 | D8 |][M:2/2][K:treble] D8 | F8 | E8 | D8 | G8 | F8 | A8 | G8 | F8 | E8 | D8 |] %473
[M:2/2] E8 | C8 | D8 | C8 | A,8 | A8 | G8 | E8 | F8 | E8 |][M:2/2][K:bass] z4 ^G,4 | A,6 G,2 | %485
 F,2 D,E, F,2 G,2 | A,2 F,G, A,2 B,2 | C6 B,2 | A,2 B,2 C2 D2 | E4 E,2 F,2 | G,4 C4- | C4 B,2 A,2 | %492
 ^G,8 |][M:2/2][K:treble] E8 | C8 | D8 | C8 | A,8 | A8 | G8 | E8 | F8 | E8 |] %503
V:3
 D,8 | D,8 | A,8 | F,8 | E,8 | D,8 | F,8 | C,8 | D,8 | A,8 | D,8 |][M:2/2][K:bass] D,8 | D,8 | %13
 E,8 | G,8 | E,8 | D,8 | F,8 | C,8 | D,8 | A,8 | D,8 |][M:2/2][K:bass] D,8 | F,8 | E,8 | D,8 | %26
 G,8 | F,8 | A,8 | G,8 | F,8 | E,8 | D,8 |][M:2/2] E,8 | F,8 | D,8 | A,,8 | F,,8 | F,,8 | C,8 | %40
 C,8 | D,8 | E,8 |][M:2/2][K:bass] E,8 | A,8 | D,8 | F,8 | F,8 | F,8 | C8 | C8 | D8 | E8 |] %53
[M:2/2][K:bass] E,8 | C,8 | D,8 | C,8 | A,,8 | A,8 | G,8 | E,8 | F,8 | E,8 |][M:2/2] F,8 | E,8 | %65
 F,8 | D,8 | G,8 | G,8 | F,8 | A,,8 | D,8 | D,8 | C,8 | F,,8 |][M:2/2][K:bass] F8 | E8 | F8 | D8 | %79
 _B,8 | G,8 | F,8 | E,8 | F,8 | D,8 | C,8 | F,8 |][M:2/2][K:bass] F,8 | G,8 | A,8 | F,8 | D,8 | %92
 E,8 | F,8 | C8 | A,8 | F,8 | G,8 | F,8 |][M:2/2][K:bass] G,8 | E,8 | E,8 | E,8 | C,8 | C,8 | G,8 | %106
 E,8 | C,8 | A,,8 | B,,8 | G,,8 | D,8 | G,,8 |][M:2/2] G,8 | E,8 | E,8 | E,8 | E,8 | C,8 | G,8 | %120
 E,8 | C,8 | C,8 | B,,8 | G,,8 | D,8 | G,,8 |][M:2/2][K:bass] A,8 | A,8 | E8 | D8 | A,8 | G,8 | %133
 F,8 | C8 | D8 | A,8 | E8 | A,8 |][M:2/2][K:bass] A,,8 | A,,8 | E,8 | D,8 | A,8 | A,8 | D,8 | C,8 | %147
 G,8 | A,8 | E,8 | A,,8 |][M:2/2] A,,8 | C,8 | B,,8 | D,8 | C,8 | E,8 | F,8 | E,8 | D,8 | C,8 | %161
 B,,8 | A,,8 |][M:2/2] C,8 | C,8 | D,8 | E,8 | C,8 | F,8 | E,8 | A,8 | D,8 | C,8 | G,8 | C,8 |] %175
[M:2/2][K:bass] C8 | C8 | A,8 | G,8 | A,8 | F,8 | C8 | C8 | D8 | C8 | G,8 | C8 |] %187
[M:2/2][K:bass] D,8 | D,8 | C,8 | G,8 | E,8 | D,8 | F,8 | C,8 | D,8 | A,8 | D,8 |] %198
[M:2/2][K:bass] D,8 | D,8 | C,8 | G,8 | E,8 | D,8 | F,8 | C8 | D8 | A,8 | D,8 |][M:2/2] z4 D4 | %210
 D,4 F,4 | A,4 E,4 | G,4 F,4 | E,4 G,4 | D,4 E,4 | F,4 A,4 | C4 C,4 | D,4 D4- | D4 ^C4 | D8 |] %220
[M:2/2] E,8 | F,8 | D,8 | F,8 | F,8 | F8 | C8 | C8 | D8 | E8 |][M:2/2][K:bass] E,8 | C,8 | D,8 | %233
 C,8 | A,,8 | A,8 | G,8 | E,8 | F,8 | E,8 |][M:2/2][K:bass] z4 E,4 | F,4 E,4 | D,4 E,4 | F,4 C,4 | %244
 D,4 E,4 | F,4 A,4 | C4 G,4 | A,4 E,4- | E,4 D,4 | E,8 |][M:2/2] F,8 | C,8 | F,8 | D,8 | _B,,8 | %255
 C,8 | D,8 | E,8 | F,8 | D,8 | C,8 | F,,8 |][M:2/2][K:bass] F,8 | C,8 | F,8 | F,8 | G,8 | C8 | D8 | %269
 E8 | F8 | D8 | C8 | F,8 |][M:2/2][K:bass] z4 F,4 | E,4 C,4 | F,4 E,4 | D,4 C,4 | _B,,4 A,,4 | %279
 G,,4 C,4 | F,,4 F,4 | E,4 C,4 | F,4 E,4 | D,4 _B,,4 | G,,4 C,4 | F,,8 |][M:2/2][K:bass] D,8 | %287
 D,8 | C,8 | G,8 | E,8 | D,8 | F,8 | C,8 | D,8 | A,8 | D,8 |][M:2/2] D,8 | F,8 | E,8 | D,8 | G,8 | %302
 F,8 | A,8 | G,8 | F,8 | E,8 | D,8 |][M:2/2][K:bass] z2 D,2 F,2 E,2 | D,2 E,2 F,2 G,2 | %310
 A,2 G,2 E,2 F,2 | G,2 D,2 G,2 F,2 | E,2 G,2 F,2 E,2 | D,2 D2 D,2 E,2 | F,2 G,2 A,2 B,2 | %315
 C2 E2 D2 C2 | D2 D,2 F,2 G,2 | A,2 G,2 A,2 A,,2 | D,8 |][M:2/2][K:bass] D,8 | D,8 | C,8 | G,8 | %323
 E,8 | D,8 | F,8 | C,8 | D,8 | A,8 | D,8 |][M:2/2] D,8 | F,8 | E,8 | D,8 | G,8 | F,8 | A,8 | G,8 | %338
 F,8 | E,8 | D,8 |][M:2/2][K:bass] D,8 | D,8 | G,8 | G,8 | E,8 | F,8 | F,8 | C,8 | D,8 | A,8 | %351
 D,8 |][M:2/2] D,8 | F,8 | E,8 | D,8 | G,8 | F,8 | A,8 | G,8 | F,8 | E,8 | D,8 |][M:2/2] z8 | %364
 z4 D,4- | D,4 C,4- | C,4 B,,4- | B,,4 E,4- | E,4 D,4- | D,4 F,4- | F,4 E,4- | E,4 D,4- | %372
 D,4 ^C,4 | D,8 |][M:2/2][K:bass] E,8 | A,8 | G,8 | A,8 | F,8 | F,8 | E,8 | C,8 | D,8 | E,8 |] %384
[M:2/2][K:bass] E,8 | A,8 | G,8 | A,8 | F,8 | F,8 | E,8 | C,8 | D,8 | E,8 |] %394
[M:2/2][K:bass] z4 E,4- | E,4 C,4- | C,4 B,,4- | B,,4 A,,4- | A,,4 F,4- | F,4 D,4- | D,4 C,4- | %401
 C,4 E,4- | E,4 D,4 | E,8 |][M:2/2] F,8 | C,8 | F,8 | D,8 | _B,,8 | C,8 | D,8 | A,8 | F,8 | D,8 | %414
 C,8 | F,,8 |][M:2/2][K:bass] F,8 | G,8 | A,8 | F,8 | D,8 | E,8 | F,8 | C8 | A,8 | F,8 | G,8 | %427
 F,8 |][M:2/2][K:bass] z4 F,4- | F,4 E,4- | E,4 D,4- | D,4 _B,,4- | B,,4 G,,4 | z4 C,4- | %434
 C,4 _B,,4- | B,,4 A,,4- | A,,4 D,4- | D,4 F,4- | F,4 E,4 | F,8 |][M:2/2][K:bass] D,8 | D8 | C8 | %443
 G,8 | E,8 | D,8 | F,8 | C8 | D8 | A,8 | D,8 |][M:2/2][K:bass] D,8 | D,8 | C,8 | G,8 | E,8 | D,8 | %457
 F,8 | C,8 | D,8 | A,8 | D,8 |][M:2/2] z4 D,4 | D,2 E,2 F,2 G,2 | A,2 E,2 A,4- | A,4 G,2 F,2 | %466
 E,2 G,2 F,2 E,2 | D,2 E,2 F,4- | F,2 C,2 F,4- | F,4 E,4- | E,2 A,,2 D,4- | D,4 ^C,4 | D,8 |] %473
[M:2/2][K:bass] E,8 | A,8 | F,8 | A,8 | F,8 | F,8 | C8 | C8 | D8 | E8 |][M:2/2][K:bass] E,8 | F,8 | %485
 D,8 | F,8 | F,8 | F,8 | C,8 | C,8 | D,8 | E,8 |][M:2/2] z4 E,4 | F,6 E,2 | D,2 E,2 F,2 G,2 | %496
 A,2 E,2 A,4- | A,2 G,2 F,4- | F,2 G,2 A,2 B,2 | C4 C,4- | C,2 D,2 E,4- | E,4 D,4 | E,8 |] %503

